X:1
L:1/8
Q:1/8=180
M:4/4
K:C
[M:4/4][K:D] f e c!p!ed .aa eded e f"^The Spey in Spate" .Te D, A, ad G a!p! ae af b x!p! ae b ud e a!p! uf ge f!p! ua ae ue .D2 FD A,DFD | 
 E2 GE B,EFE | D2 dA BAFD | E^DEF EB,CA, | D2 FD A,DFD | E2 GE B,EFE | D2 dA BAFD | CDEC D2 FA || 
 B^ABc d2 F=A | B2 B^A BdcB | A2 cA EAce | aecA BAFA | B^ABc B=AFA | Bcdc B2 dc | BF F2 BEF^G | 
 AcBA FECA, |"^last time" D4 z4 |] </s><end_of_turn>
<start_of_turn>model
Sure, here is the extracted motif in ABC format:

